src/assets/video.svg

<?xml version="1.0" encoding="UTF-8" standalone="no"?>
<svg
   xmlns:dc="http://purl.org/dc/elements/1.1/"
   xmlns:cc="http://creativecommons.org/ns#"
   xmlns:rdf="http://www.w3.org/1999/02/22-rdf-syntax-ns#"
   xmlns:svg="http://www.w3.org/2000/svg"
   xmlns="http://www.w3.org/2000/svg"
   id="svg891"
   version="1.1"
   viewBox="0 0 22.912281 17.988821"
   height="17.988821mm"
   width="22.912281mm">
  <defs
     id="defs885" />
  <metadata
     id="metadata888">
    <rdf:RDF>
      <cc:Work
         rdf:about="">
        <dc:format>image/svg+xml</dc:format>
        <dc:type
           rdf:resource="http://purl.org/dc/dcmitype/StillImage" />
        <dc:title></dc:title>
      </cc:Work>
    </rdf:RDF>
  </metadata>
  <path
     style="fill:#000000;stroke-width:0.0163688"
     d="M 10.49033,17.98579 C 8.8278539,17.939182 7.736308,17.87486 6.3326358,17.740772 5.0275588,17.616111 3.4050579,17.405754 3.0509612,17.315314 1.7994593,16.995672 0.84208912,16.03853 0.51406252,14.779028 0.40962177,14.378011 0.22481747,13.066998 0.13795887,12.110909 -0.11698684,9.3046112 -0.01561179,6.2528272 0.41744467,3.6973133 0.50809292,3.1623854 0.59311402,2.8765343 0.76869312,2.5163738 1.0491835,1.941012 1.5331364,1.4090826 2.084915,1.0696657 2.2289315,0.98107865 2.5538956,0.82540172 2.7151169,0.76777635 3.0373621,0.65258716 3.4404343,0.58186826 4.6220891,0.43320317 6.338659,0.21724073 7.8366734,0.09583914 9.729177,0.01930004 10.365415,-0.00643335 12.546771,-0.00643335 13.183008,0.01930004 15.390103,0.10855601 17.297875,0.27948693 19.25885,0.56366948 19.902291,0.6569157 20.140129,0.72314458 20.548997,0.92293813 21.126028,1.2048912 21.621715,1.6508323 21.961166,2.1933719 22.245372,2.6476166 22.37758,3.0344793 22.503103,3.7791574 22.928931,6.3053936 23.027801,9.3401168 22.774279,12.10272 22.684887,13.076831 22.501954,14.38068 22.399537,14.773678 22.131851,15.800877 21.443049,16.64227 20.507744,17.084574 20.125689,17.265246 19.881672,17.33079 19.253613,17.421415 17.30389,17.702761 15.30663,17.882234 13.22393,17.963239 12.805514,17.979508 10.843695,17.9957 10.49033,17.98579 Z M 13.240298,16.326864 C 14.867332,16.258636 16.287653,16.1447 17.848134,15.957223 18.670708,15.858402 19.389695,15.753454 19.537445,15.710637 20.127239,15.539722 20.591416,15.079757 20.783172,14.476209 20.855745,14.247776 20.99263,13.36608 21.088126,12.511942 21.226801,11.271608 21.288424,9.9680829 21.271913,8.6243397 21.258678,7.547249 21.215489,6.7387639 21.121078,5.8007122 21.05004,5.0948765 20.921564,4.1687188 20.834975,3.7382315 20.72787,3.2057562 20.453131,2.7868478 20.023379,2.5007508 19.740141,2.3121978 19.560483,2.257348 18.934064,2.1682074 15.673322,1.7041829 12.333675,1.5344283 9.2626638,1.6766119 8.0791736,1.7314079 6.8557158,1.827199 5.702435,1.9553665 4.7385919,2.0624827 3.6456407,2.2110631 3.4228753,2.2652672 2.923533,2.3867609 2.4803356,2.747129 2.2406574,3.2265459 2.1118802,3.484134 2.0586622,3.7210093 1.9381418,4.573042 1.7232508,6.0922451 1.6434354,7.2920751 1.6435951,9.0008233 1.6437138,10.276599 1.6712883,10.911393 1.7747804,12.020876 1.8730992,13.074894 2.0445525,14.238081 2.1427273,14.517128 2.3512117,15.109719 2.8007821,15.544312 3.3784952,15.711722 3.5595837,15.764203 4.5569435,15.903165 5.5469301,16.013849 7.069261,16.18405 8.6152164,16.294687 10.130214,16.341849 10.688672,16.359232 12.699425,16.349545 13.240298,16.326864 Z M 8.1823168,8.9926421 V 4.9004341 L 12.266351,6.9424248 C 14.512568,8.0655236 16.350383,8.9881213 16.350383,8.9926421 16.350383,8.9971556 14.512568,9.9197535 12.266351,11.042852 L 8.1823168,13.084843 Z"
     id="path915" />
</svg>

<svg xmlns="http://www.w3.org/2000/svg" viewBox="0 0 22.912 17.989" height="67.989" width="86.598"><path style="fill:#000;stroke-width:.0163688" d="M10.49 17.986a56.284 56.284 0 0 1-4.157-.245c-1.305-.125-2.928-.335-3.282-.426A3.503 3.503 0 0 1 .514 14.78c-.104-.401-.29-1.712-.376-2.668-.255-2.806-.154-5.858.28-8.414.09-.535.175-.82.35-1.18A3.615 3.615 0 0 1 2.086 1.07a4.61 4.61 0 0 1 .63-.302C3.037.653 3.44.582 4.622.433A57.126 57.126 0 0 1 9.73.02a77.27 77.27 0 0 1 3.454 0c2.207.09 4.115.26 6.076.545.643.093.881.16 1.29.359a3.477 3.477 0 0 1 1.412 1.27c.284.455.417.841.542 1.586.426 2.526.525 5.561.271 8.324-.09.974-.272 2.278-.374 2.67a3.518 3.518 0 0 1-1.892 2.312c-.382.18-.626.246-1.254.336-1.95.282-3.947.461-6.03.542-.418.017-2.38.033-2.734.023zm2.75-1.66a57.374 57.374 0 0 0 4.608-.369c.823-.099 1.542-.204 1.69-.246.59-.171 1.053-.631 1.245-1.235.073-.228.21-1.11.305-1.964.139-1.24.2-2.544.184-3.888a30.101 30.101 0 0 0-.15-2.823 26.9 26.9 0 0 0-.287-2.063c-.107-.532-.382-.951-.812-1.237-.283-.189-.463-.244-1.089-.333-3.26-.464-6.6-.634-9.671-.491-1.184.054-2.407.15-3.56.278-.964.107-2.057.256-2.28.31-.5.122-.943.482-1.182.962-.13.257-.182.494-.303 1.346-.215 1.52-.295 2.72-.294 4.428 0 1.276.027 1.91.13 3.02.1 1.054.27 2.217.369 2.496.208.593.658 1.027 1.235 1.195.182.052 1.179.191 2.169.302 1.522.17 3.068.28 4.583.328.559.017 2.57.008 3.11-.015zM8.182 8.994V4.9l4.084 2.042a715.365 715.365 0 0 1 4.084 2.05c0 .005-1.837.928-4.084 2.05l-4.084 2.043z"/></svg>
